src/assets/svg/icons/fa/nuevos/classic/thin/landmark-dome classic thin.svg

<svg xmlns="http://www.w3.org/2000/svg" viewBox="0 0 512 512"><path d="M256 0C260.4 0 264 3.582 264 8V16.16C360.1 20.14 439.4 96.07 447.3 192H464C468.4 192 472 195.6 472 200C472 204.4 468.4 208 464 208H48C43.58 208 40 204.4 40 200C40 195.6 43.58 192 48 192H64.66C72.57 96.07 151 20.14 248 16.16V8C248 3.582 251.6 0 256 0V0zM80.72 192H431.3C423.2 102.3 347.8 32 256 32C164.2 32 88.8 102.3 80.72 192zM80 368H184V248C184 243.6 187.6 240 192 240C196.4 240 200 243.6 200 248V368H312V248C312 243.6 315.6 240 320 240C324.4 240 328 243.6 328 248V368H432V248C432 243.6 435.6 240 440 240C444.4 240 448 243.6 448 248V376C448 380.4 444.4 384 440 384H72C67.58 384 64 380.4 64 376V248C64 243.6 67.58 240 72 240C76.42 240 80 243.6 80 248V368zM472 432C476.4 432 480 435.6 480 440C480 444.4 476.4 448 472 448H40C35.58 448 32 444.4 32 440C32 435.6 35.58 432 40 432H472zM504 496C508.4 496 512 499.6 512 504C512 508.4 508.4 512 504 512H8C3.582 512 0 508.4 0 504C0 499.6 3.582 496 8 496H504z"/></svg>

<svg xmlns="http://www.w3.org/2000/svg" viewBox="0 0 512 512"><!--! Font Awesome Pro 6.4.0 by @fontawesome - https://fontawesome.com License - https://fontawesome.com/license (Commercial License) Copyright 2023 Fonticons, Inc. --><path d="M256 0c4.4 0 8 3.6 8 8v8.2c97 4 175.4 79.9 183.3 175.8H464c4.4 0 8 3.6 8 8s-3.6 8-8 8H448 432 80 64 48c-4.4 0-8-3.6-8-8s3.6-8 8-8H64.7C72.6 96.1 151 20.1 248 16.2V8c0-4.4 3.6-8 8-8zM80.7 192H431.3C423.2 102.3 347.8 32 256 32S88.8 102.3 80.7 192zM80 248V368H184V248c0-4.4 3.6-8 8-8s8 3.6 8 8V368H312V248c0-4.4 3.6-8 8-8s8 3.6 8 8V368H432V248c0-4.4 3.6-8 8-8s8 3.6 8 8V376c0 4.4-3.6 8-8 8H72c-4.4 0-8-3.6-8-8V248c0-4.4 3.6-8 8-8s8 3.6 8 8zM40 432H472c4.4 0 8 3.6 8 8s-3.6 8-8 8H40c-4.4 0-8-3.6-8-8s3.6-8 8-8zM8 496H504c4.4 0 8 3.6 8 8s-3.6 8-8 8H8c-4.4 0-8-3.6-8-8s3.6-8 8-8z"/></svg>
